X: 1519
T: Hare and Heather
B: australian traditional tunes wiki
M:2/4
L:1/8
R: Set Tune
Q: 1/4=100
K:D
V:1 
A|:"D"dA/A/ AF/F/|"G"GA Bc|"D"dA/A/ AF/F/|"A7"GE Ec|"D"dA/A/ AF/F/|"G"GA Bc|"A7"Af/f/ ec|"D"d2dA:|
|:"A"e2cA|"A"e2cA|"E7"Bc/c/ de|"E7"dc BA|"A"e2cA|"A"e2cA|"E7"Bc/c/ de|"A"cBA2:|
% abcbook-tune_id 6342d53a51081b26980d2e92


% abcbook-boost 0
% abcbook-tablature 
% abcbook-transpose 
% abcbook-lastupdated 1665324369022
% abcbook-soundfonts 
% abcbook-repeats 1
% NFF Book 2013

